X: 12102
T: Ev Chistr 'Ta, Laou
R: barndance
M: 4/4
K: Dmajor
e ec|:"Bm"d2 B2 Be|ed "A"ce ec|"G"d2 B2 "F#m"cA|1 "Bm"B3e ec:|2 "Bm"B3B de||
|:f2 f2 "G"ge|"D"f3f "A"ee|"Bm"d2 B2 Be|ed "A"ce ec|"G"d2 B2 "F#m"cA|1 "Bm"B3B de:|2 "Bm"B6||

